packages/fxa-settings/src/components/ConnectedServices/sync.svg

<svg width="24" height="24" viewBox="0 0 24 24" fill="none" xmlns="http://www.w3.org/2000/svg">
<path fill-rule="evenodd" clip-rule="evenodd" d="M17 6.00024C17 5.44795 17.4477 5.00024 18 5.00024C18.5523 5.00024 19 5.44795 19 6.00024V10.0002C19 10.5525 18.5523 11.0002 18 11.0002H14C13.4477 11.0002 13 10.5525 13 10.0002C13 9.44795 13.4477 9.00024 14 9.00024H15.967C15.0382 7.74039 13.5652 6.99779 12 7.00024C9.7088 7.0028 7.71463 8.56744 7.167 10.7922C7.02562 11.3192 6.48793 11.6356 5.95862 11.5033C5.42931 11.3709 5.10376 10.8387 5.227 10.3072C5.82668 7.83995 7.72448 5.89627 10.1767 5.23785C12.629 4.57942 15.2451 5.31113 17 7.14624V6.00024ZM16.833 13.2082C16.9668 12.6726 17.5093 12.3467 18.045 12.4802C18.3024 12.5445 18.5238 12.7084 18.6603 12.9359C18.7969 13.1634 18.8374 13.4358 18.773 13.6932C18.1733 16.1605 16.2755 18.1042 13.8233 18.7626C11.371 19.421 8.75485 18.6893 7 16.8542V18.0002C7 18.5525 6.55228 19.0002 6 19.0002C5.44772 19.0002 5 18.5525 5 18.0002V14.0002C5 13.448 5.44772 13.0002 6 13.0002H10C10.5523 13.0002 11 13.448 11 14.0002C11 14.5525 10.5523 15.0002 10 15.0002H8.033C8.96182 16.2601 10.4348 17.0027 12 17.0002C14.2912 16.9977 16.2854 15.433 16.833 13.2082Z" fill="#20123A"/>
<mask id="mask0" mask-type="alpha" maskUnits="userSpaceOnUse" x="5" y="5" width="14" height="15">
<path fill-rule="evenodd" clip-rule="evenodd" d="M17 6.00024C17 5.44795 17.4477 5.00024 18 5.00024C18.5523 5.00024 19 5.44795 19 6.00024V10.0002C19 10.5525 18.5523 11.0002 18 11.0002H14C13.4477 11.0002 13 10.5525 13 10.0002C13 9.44795 13.4477 9.00024 14 9.00024H15.967C15.0382 7.74039 13.5652 6.99779 12 7.00024C9.7088 7.0028 7.71463 8.56744 7.167 10.7922C7.02562 11.3192 6.48793 11.6356 5.95862 11.5033C5.42931 11.3709 5.10376 10.8387 5.227 10.3072C5.82668 7.83995 7.72448 5.89627 10.1767 5.23785C12.629 4.57942 15.2451 5.31113 17 7.14624V6.00024ZM16.833 13.2082C16.9668 12.6726 17.5093 12.3467 18.045 12.4802C18.3024 12.5445 18.5238 12.7084 18.6603 12.9359C18.7969 13.1634 18.8374 13.4358 18.773 13.6932C18.1733 16.1605 16.2755 18.1042 13.8233 18.7626C11.371 19.421 8.75485 18.6893 7 16.8542V18.0002C7 18.5525 6.55228 19.0002 6 19.0002C5.44772 19.0002 5 18.5525 5 18.0002V14.0002C5 13.448 5.44772 13.0002 6 13.0002H10C10.5523 13.0002 11 13.448 11 14.0002C11 14.5525 10.5523 15.0002 10 15.0002H8.033C8.96182 16.2601 10.4348 17.0027 12 17.0002C14.2912 16.9977 16.2854 15.433 16.833 13.2082Z" fill="white"/>
</mask>
<g mask="url(#mask0)">
</g>
</svg>

<svg width="24" height="24" fill="none" xmlns="http://www.w3.org/2000/svg"><path fill-rule="evenodd" clip-rule="evenodd" d="M17 6a1 1 0 112 0v4a1 1 0 01-1 1h-4a1 1 0 110-2h1.967A4.919 4.919 0 0012 7a4.983 4.983 0 00-4.833 3.792 1 1 0 01-1.94-.485A6.948 6.948 0 0117 7.147V6zm-.167 7.208a1 1 0 111.94.485A6.948 6.948 0 017 16.854V18a1 1 0 11-2 0v-4a1 1 0 011-1h4a1 1 0 010 2H8.033A4.919 4.919 0 0012 17a4.983 4.983 0 004.833-3.792z" fill="#20123A"/><mask id="a" maskUnits="userSpaceOnUse" x="5" y="5" width="14" height="15"><path fill-rule="evenodd" clip-rule="evenodd" d="M17 6a1 1 0 112 0v4a1 1 0 01-1 1h-4a1 1 0 110-2h1.967A4.919 4.919 0 0012 7a4.983 4.983 0 00-4.833 3.792 1 1 0 01-1.94-.485A6.948 6.948 0 0117 7.147V6zm-.167 7.208a1 1 0 111.94.485A6.948 6.948 0 017 16.854V18a1 1 0 11-2 0v-4a1 1 0 011-1h4a1 1 0 010 2H8.033A4.919 4.919 0 0012 17a4.983 4.983 0 004.833-3.792z" fill="#fff"/></mask></svg>
